X:1
T:Wir sind die Moorsoldaten
T:Musik: Rudi Goguel (1933)
T:Text: Johann Esser, Wolfgang Langhoff (1933)
T:Das Lied entstand im Konzentrationslager Börgerrmoor II bei Papenburg. Durch verlegte KZ-Insassen wurde das Lied verbreitet und erlangte internationale Bekanntheit. Den KZ-insassen war dieses Lied jedoch so wertvoll, dass sie es nach Möglichkeit nicht auf Märschen, sondern nur bei besonderen Anlässen und Gedenktagen sangen.
L:1/8
M:4/4
K:G
V:1 treble nm="Voice"
V:1
 E2 B,2 E2 GF | E2 B,2 E2 E2 | F2 F2 F2 A2 | G2 F2 E2 z2 | G2 D2 G2 BA | G2 D2 G2 G2 | %6
w: 1.~Wo- hin auch das _|Au- ge blik- ket,|Moor und Hei- de|nur rings- um.|Vo- gel- sang uns _|nicht er- quik- ket,|
w: 2.~Hier in die- ser _|ö den Hei- de|ist das La- ger|auf- ge- baut.|Wo wir fern von _|je- der Freu- de|
w: 3.~Mor- gens zie- hen _|die Ko- lon- nen|in das Moor zur|Ar- beit hin.|Gra- ben bei dem _|Brand der Son- nen,|
w: 4.~Heim- wärts, heim- wärts _|je- der seh- net|sich zu El- tern,|Weib und Kind.|Man- che Brust ein _|Seuf- zer deh- net,|
w: 5.~Auf und nie- der _|gehn die Po- sten,|kei- ner kei- ner|kann hin- durch,|Flucht wird nur das _|Le- ben ko- sten!|
w: 6.~Doch für uns gibt _|es kein Kla- gen,|e- wig kanns nicht|Win- ter sein.|Ein- mal wer- den _|froh wir sa- gen:|
 B2 G2 A2 F2 | G2 F2 E2 z"^Refrain" D |: B3 B B2 G2 | A4 A2 F2 | G3 G G2 E2 | F4 F2 B,2 |1 %12
w: Er- len ste- hen|kahl und krumm. 1.\-5.Wir|sind die Moor- sol-|da- ten und|zie- hen mit dem|Spa- ten ins|
w: hin- ter Sta- chel-|draht- ver- hau. *|||||
w: doch zur Hei- mat|steht der Sinn. *|||||
w: weil wir hier ge-|fan- gen sind. *|||||
w: Vier- fach ist um-|zäunt die Burg. *|||||
w: Hei- mat, du bist|wie- der mein. 6.~Dann|ziehn die Moor- sol-|da- ten- *|nicht mehr mit dem|Spa- ten ins|
 E4 z2 z D :|2 E6 z2 |] %14
w: Moor, wir|Moor.|
w: ||
w: ||
w: ||
w: ||
w: Moor, dann|Moor.|

